icons/svg/24x24/reject squircle/outline.svg

<svg xmlns="http://www.w3.org/2000/svg" width="24" height="24" viewBox="0 0 24 24">
  <path fill-rule="evenodd" d="M13.4141,12 L15.7071,9.707 C16.0981,9.316 16.0981,8.684 15.7071,8.293 C15.3161,7.902 14.6841,7.902 14.2931,8.293 L12.0001,10.586 L9.7071,8.293 C9.3161,7.902 8.6841,7.902 8.2931,8.293 C7.9021,8.684 7.9021,9.316 8.2931,9.707 L10.5861,12 L8.2931,14.293 C7.9021,14.684 7.9021,15.316 8.2931,15.707 C8.4881,15.902 8.7441,16 9.0001,16 C9.2561,16 9.5121,15.902 9.7071,15.707 L12.0001,13.414 L14.2931,15.707 C14.4881,15.902 14.7441,16 15.0001,16 C15.2561,16 15.5121,15.902 15.7071,15.707 C16.0981,15.316 16.0981,14.684 15.7071,14.293 L13.4141,12 Z M12.0001,2 C10.2001,2 8.4451,2.192 6.7551,2.558 C4.6511,3.012 3.0131,4.651 2.5581,6.754 C2.1921,8.444 2.0001,10.199 2.0001,12 C2.0001,13.8 2.1921,15.555 2.5581,17.245 C3.0131,19.348 4.6511,20.987 6.7541,21.441 C8.4451,21.808 10.2001,22 12.0001,22 C13.8001,22 15.5551,21.808 17.2461,21.441 C19.3481,20.987 20.9871,19.348 21.4421,17.245 C21.8081,15.555 22.0001,13.8 22.0001,12 C22.0001,10.2 21.8081,8.445 21.4421,6.755 C20.9871,4.652 19.3481,3.013 17.2461,2.559 C15.5551,2.192 13.8001,2 12.0001,2 L12.0001,2 Z M12.0001,4 C13.6271,4 15.2491,4.173 16.8231,4.513 C18.1531,4.801 19.1991,5.847 19.4871,7.177 C19.8271,8.751 20.0001,10.374 20.0001,12 C20.0001,13.626 19.8271,15.249 19.4871,16.823 C19.1991,18.153 18.1531,19.199 16.8231,19.487 C15.2491,19.827 13.6261,20 12.0001,20 C10.3741,20 8.7511,19.827 7.1771,19.487 C5.8461,19.199 4.8011,18.153 4.5131,16.823 C4.1731,15.249 4.0001,13.626 4.0001,12 C4.0001,10.373 4.1731,8.75 4.5131,7.177 C4.8011,5.846 5.8471,4.8 7.1771,4.513 C8.7511,4.173 10.3741,4 12.0001,4 L12.0001,4 Z"/>
</svg>

<svg width="24" height="24" fill="none" xmlns="http://www.w3.org/2000/svg">
  <path fill-rule="evenodd" clip-rule="evenodd" d="M13.414 12l2.293-2.293a.999.999 0 10-1.414-1.414L12 10.586 9.707 8.293a.999.999 0 10-1.414 1.414L10.586 12l-2.293 2.293a.999.999 0 101.414 1.414L12 13.414l2.293 2.293a.997.997 0 001.414 0 .999.999 0 000-1.414L13.414 12zM12 2c-1.8 0-3.555.192-5.245.558a5.472 5.472 0 00-4.197 4.196A24.762 24.762 0 002 12c0 1.8.192 3.555.558 5.245a5.472 5.472 0 004.196 4.196C8.445 21.808 10.2 22 12 22c1.8 0 3.555-.192 5.246-.559a5.473 5.473 0 004.196-4.196A24.76 24.76 0 0022 12c0-1.8-.192-3.555-.558-5.245a5.473 5.473 0 00-4.196-4.196A24.711 24.711 0 0012 2zm0 2c1.627 0 3.25.173 4.823.513a3.487 3.487 0 012.664 2.664 22.886 22.886 0 010 9.646 3.487 3.487 0 01-2.664 2.664 22.886 22.886 0 01-9.646 0 3.486 3.486 0 01-2.664-2.664 22.886 22.886 0 010-9.646 3.484 3.484 0 012.664-2.664A22.886 22.886 0 0112 4z" fill="#000"/>
</svg>
